<?xml version="1.0" encoding="UTF-8"?>
<map version="1.10" tiledversion="1.10.2" orientation="orthogonal" renderorder="right-down" width="24" height="13" tilewidth="18" tileheight="18" infinite="0" nextlayerid="4" nextobjectid="9">
 <tileset firstgid="1" name="kenney" tilewidth="18" tileheight="18" tilecount="180" columns="20">
  <image source="../../../assets/kenney/tilemap_packed.png" width="360" height="162"/>
 </tileset>
 <layer id="1" name="decor" width="24" height="13">
  <data encoding="csv">
0,0,0,0,0,0,0,0,0,0,0,0,0,0,0,0,0,0,0,0,0,0,0,0
0,0,0,0,0,0,0,0,0,0,0,0,0,0,0,0,0,0,0,0,0,0,0,0
0,0,0,0,0,0,0,0,0,0,0,0,0,0,0,0,0,0,0,0,0,0,0,0
0,0,0,0,0,0,0,0,0,0,0,0,0,0,0,0,0,0,0,0,0,0,0,0
0,0,0,0,0,0,0,0,0,0,0,0,0,0,0,0,0,0,0,0,0,0,0,0
0,0,0,0,0,0,0,0,0,0,0,0,0,0,0,0,0,0,0,0,0,0,0,0
0,0,0,0,0,0,0,0,0,0,0,0,0,0,0,0,0,0,0,0,0,0,0,0
0,0,0,0,0,0,0,0,0,0,0,0,0,0,0,0,0,0,0,0,0,0,0,0
0,0,0,0,0,0,0,0,0,0,0,0,0,0,0,0,0,0,0,0,0,0,0,0
0,0,11,0,0,0,11,0,0,0,0,0,0,0,0,0,0,0,0,0,11,0,0,0
0,0,0,0,0,0,0,0,0,0,0,0,0,0,0,0,0,0,0,0,0,0,0,0
0,0,0,0,0,0,0,0,0,0,0,0,0,0,0,0,0,0,0,0,0,0,0,0
0,0,0,0,0,0,0,0,0,0,0,0,0,0,0,0,0,0,0,0,0,0,0,0
</data>
 </layer>
 <layer id="2" name="ground" width="24" height="13">
  <properties>
   <property name="collision" type="bool" value="true"/>
  </properties>
  <data encoding="csv">
0,0,0,0,0,0,0,0,0,0,0,0,0,0,0,0,0,0,0,0,0,0,0,0
0,0,0,0,0,0,0,0,0,0,0,0,0,0,0,0,0,0,0,0,0,0,0,0
0,0,0,0,0,0,0,0,0,0,0,0,0,0,0,0,0,0,0,0,0,0,0,0
0,0,0,0,0,0,0,0,0,0,0,0,0,0,0,0,0,0,23,23,23,0,0,0
0,0,0,0,0,0,0,0,0,0,0,0,0,0,0,0,0,0,0,0,0,0,0,0
0,0,0,0,0,0,0,0,0,0,0,0,0,0,23,23,0,0,0,0,0,0,0,0
0,0,0,0,0,0,0,0,0,23,23,0,0,0,0,0,0,0,0,0,0,0,0,0
0,0,0,0,0,0,0,0,0,0,0,0,0,0,0,0,0,0,0,0,0,0,0,0
0,0,0,0,0,0,0,0,0,0,0,0,0,0,0,0,0,0,0,0,0,0,0,0
0,0,0,0,0,0,0,0,0,0,0,0,0,0,0,0,0,0,0,0,0,0,0,0
23,23,23,23,23,23,23,23,23,23,23,23,0,0,0,23,23,23,23,23,23,23,23,23
25,25,25,25,25,25,25,25,25,25,25,25,0,0,0,25,25,25,25,25,25,25,25,25
25,25,25,25,25,25,25,25,25,25,25,25,0,0,0,25,25,25,25,25,25,25,25,25
</data>
 </layer>
 <objectgroup id="3" name="things">
  <object id="1" name="coin-1" class="Coin" x="171" y="96">
   <point/>
  </object>
  <object id="2" name="coin-2" class="Coin" x="261" y="78">
   <point/>
  </object>
  <object id="3" name="coin-3" class="Coin" x="351" y="42">
   <point/>
  </object>
  <object id="4" name="walker-1" class="Walker" x="150" y="160">
   <point/>
  </object>
  <object id="5" name="walker-2" class="Walker" x="380" y="160">
   <point/>
  </object>
  <object id="6" name="flag" class="Flag" x="405" y="171">
   <point/>
  </object>
  <object id="7" name="ledge" class="Ledge" x="99" y="144">
   <point/>
  </object>
  <object id="8" name="lift" class="Lift" x="129" y="184">
   <point/>
  </object>
 </objectgroup>
</map>
